svgs/solid/taxi-bus.svg

<svg xmlns="http://www.w3.org/2000/svg" viewBox="0 0 640 512"><!--! Font Awesome Pro 6.2.0 by @fontawesome - https://fontawesome.com License - https://fontawesome.com/license (Commercial License) Copyright 2022 Fonticons, Inc. --><path d="M48 416H32c-17.7 0-32-14.3-32-32V74.5c0-16.2 9.2-31 23.7-38.3C71.2 12.4 123.7 0 176.9 0h30.3c53.2 0 105.6 12.4 153.2 36.2C374.8 43.4 384 58.2 384 74.5V96c-21.9 0-40.4 14.7-46.2 34.8c-6.1 1.4-12.1 3.3-17.8 5.6V120c0-13.3-10.7-24-24-24H208V224h41.9l-16.3 48.9C208.5 290.2 192 319.2 192 352v64H128v32c0 17.7-14.3 32-32 32H80c-17.7 0-32-14.3-32-32V416zM64 120v80c0 13.3 10.7 24 24 24h88V96H88c-13.3 0-24 10.7-24 24zm56 200c0-13.3-10.7-24-24-24s-24 10.7-24 24s10.7 24 24 24s24-10.7 24-24zM368 152c0-13.3 10.7-24 24-24h80c13.3 0 24 10.7 24 24v8h5.4c34.4 0 65 22 75.9 54.7l26.6 79.7C625.2 304.7 640 326.6 640 352l0 96v32c0 17.7-14.3 32-32 32H592c-17.7 0-32-14.3-32-32V448H304v32c0 17.7-14.3 32-32 32H256c-17.7 0-32-14.3-32-32V448h0V352c0-25.4 14.8-47.3 36.1-57.6l26.6-79.7C297.6 182 328.2 160 362.6 160H368v-8zm-20.6 82.9L329.7 288H534.3l-17.7-53.1c-2.2-6.5-8.3-10.9-15.2-10.9H362.6c-6.9 0-13 4.4-15.2 10.9zM328 368c0-13.3-10.7-24-24-24s-24 10.7-24 24s10.7 24 24 24s24-10.7 24-24zm232 24c13.3 0 24-10.7 24-24s-10.7-24-24-24s-24 10.7-24 24s10.7 24 24 24z"/></svg>

<svg xmlns="http://www.w3.org/2000/svg" viewBox="0 0 640 512"><!--! Font Awesome Pro 6.1.2 by @fontawesome - https://fontawesome.com License - https://fontawesome.com/license (Commercial License) Copyright 2022 Fonticons, Inc. --><path d="M48 416H32C14.33 416 0 401.7 0 384V74.46C0 58.25 9.164 43.42 23.67 36.16C71.24 12.38 123.7 0 176.9 0H207.1C260.3 0 312.8 12.38 360.3 36.16C374.8 43.42 384 58.25 384 74.46V96C362.1 96 343.6 110.7 337.8 130.8C331.7 132.1 325.7 134 319.1 136.4V120C319.1 106.7 309.3 96 295.1 96H207.1V224H249.9L233.6 272.9C208.5 290.2 191.1 319.2 191.1 352V416H127.1V448C127.1 465.7 113.7 480 95.1 480H79.1C62.33 480 47.1 465.7 47.1 448L48 416zM64 200C64 213.3 74.75 224 88 224H176V96H88C74.75 96 64 106.7 64 120V200zM96 296C82.75 296 72 306.7 72 320C72 333.3 82.75 344 96 344C109.3 344 120 333.3 120 320C120 306.7 109.3 296 96 296zM368 152C368 138.7 378.7 128 392 128H472C485.3 128 496 138.7 496 152V160H501.4C535.8 160 566.4 182 577.3 214.7L603.9 294.4C625.2 304.7 640 326.6 640 352L640 480C640 497.7 625.7 512 608 512H592C574.3 512 560 497.7 560 480V448H304V480C304 497.7 289.7 512 272 512H256C238.3 512 224 497.7 224 480L224 352C224 326.6 238.8 304.7 260.1 294.4L286.7 214.7C297.6 182 328.2 159.1 362.6 159.1H368V152zM329.7 288H534.3L516.6 234.9C514.4 228.4 508.3 224 501.4 224H362.6C355.7 224 349.6 228.4 347.4 234.9L329.7 288zM304 344C290.7 344 280 354.7 280 368C280 381.3 290.7 392 304 392C317.3 392 328 381.3 328 368C328 354.7 317.3 344 304 344zM560 392C573.3 392 584 381.3 584 368C584 354.7 573.3 344 560 344C546.7 344 536 354.7 536 368C536 381.3 546.7 392 560 392z"/></svg>
